default/images/icon/airplane.svg

<svg xmlns="http://www.w3.org/2000/svg" viewBox="0 0 20 20"><rect x="0" fill="none" width="20" height="20"/><g><path d="M17.6 2.4c-.8-.8-2.1-.1-2.7.5l-3.5 3.8-2.4-1 .6-.6c.2-.2.2-.5 0-.7-.1-.2-.4-.1-.6 0l-.9.9-1.8-.8.5-.5c.2-.2.2-.5 0-.6-.2-.2-.5-.2-.7 0l-.8.8-.5-.2c-.8-.4-1.7-.3-2.3.4l5.8 5.8L6 12.6l-3.5-.2-.5.7 3.1 1.8L6.9 18l.7-.5-.2-3.5 2.5-2.3 5.8 5.8c.6-.6.8-1.6.4-2.3l-.2-.5.8-.8c.2-.2.2-.5 0-.7-.2-.2-.5-.2-.7 0l-.5.5-.8-1.9.9-.9c.2-.2.2-.5 0-.7-.2-.2-.5-.2-.6 0l-.6.6-1-2.4L17.2 5c.6-.5 1.2-1.9.4-2.6z"/></g></svg>

<?xml version="1.0" encoding="utf-8"?>
<!-- Generator: Adobe Illustrator 24.3.0, SVG Export Plug-In . SVG Version: 6.00 Build 0)  -->
<svg version="1.1" id="レイヤー_1" xmlns="http://www.w3.org/2000/svg" xmlns:xlink="http://www.w3.org/1999/xlink" x="0px"
	 y="0px" viewBox="0 0 20 20" style="enable-background:new 0 0 20 20;" xml:space="preserve">
<style type="text/css">
	.st0{fill:none;}
	.st1{fill:#FFFFFF;}
</style>
<rect class="st0" width="20" height="20"/>
<g>
	<path class="st1" d="M17.6,2.4c-0.8-0.8-2.1-0.1-2.7,0.5l-3.5,3.8L9,5.7l0.6-0.6c0.2-0.2,0.2-0.5,0-0.7C9.5,4.2,9.2,4.3,9,4.4
		L8.1,5.3L6.3,4.5L6.8,4C7,3.8,7,3.5,6.8,3.4c-0.2-0.2-0.5-0.2-0.7,0L5.3,4.2L4.8,4C4,3.6,3.1,3.7,2.5,4.4l5.8,5.8L6,12.6l-3.5-0.2
		L2,13.1l3.1,1.8L6.9,18l0.7-0.5L7.4,14l2.5-2.3l5.8,5.8c0.6-0.6,0.8-1.6,0.4-2.3l-0.2-0.5l0.8-0.8c0.2-0.2,0.2-0.5,0-0.7
		s-0.5-0.2-0.7,0l-0.5,0.5l-0.8-1.9l0.9-0.9c0.2-0.2,0.2-0.5,0-0.7s-0.5-0.2-0.6,0l-0.6,0.6l-1-2.4L17.2,5
		C17.8,4.5,18.4,3.1,17.6,2.4z"/>
</g>
</svg>
